(HJL: added feedrate, adjust z offset for profile)
(Exported by FreeCAD)
(Post Processor: grbl_post)
(Output Time:2021-03-14 22:26:06.368888)
(Begin preamble)
G17 G90
G21
(Begin operation: Fixture)
(Path: Fixture)
G54
(Finish operation: Fixture)
(Begin operation: my_right_sharp001)
(Path: my_right_sharp001)
(my_right_sharp001)
(Begin toolchange)
( M6 T1.0 )
M3 S0.0
(Finish operation: my_right_sharp001)
(Begin operation: TurnRough)
(Path: TurnRough)
F100.0
(TurnRough)
G18
G0 X6.400 Y0.000 Z1.000
G1 X6.400 Y0.000 Z-34.948
G1 X6.541 Y0.000 Z-34.807
G0 X7.000 Y0.000
G0 X7.000 Y0.000 Z-36.552
G0 X6.600 Y0.000 Z-36.552
G1 X6.400 Y0.000 Z-36.552
G1 X6.400 Y0.000 Z-42.000
G0 X7.000 Y0.000 Z-42.000
G0 X7.000 Y0.000 Z1.000
G18
G0 X6.200 Y0.000 Z1.000
G1 X6.200 Y0.000 Z-33.972
G1 X6.341 Y0.000 Z-33.830
G0 X6.800 Y0.000
G0 X6.800 Y0.000 Z-37.528
G0 X6.400 Y0.000 Z-37.528
G1 X6.200 Y0.000 Z-37.528
G1 X6.200 Y0.000 Z-42.000
G0 X6.800 Y0.000 Z-42.000
G0 X6.800 Y0.000 Z1.000
G18
G0 X6.000 Y0.000 Z1.000
G1 X6.000 Y0.000 Z-33.383
G1 X6.141 Y0.000 Z-33.242
G0 X6.650 Y0.000
G0 X6.650 Y0.000 Z-38.117
G0 X6.200 Y0.000 Z-38.117
G1 X6.000 Y0.000 Z-38.117
G1 X6.000 Y0.000 Z-42.000
G0 X6.650 Y0.000 Z-42.000
G0 X6.650 Y0.000 Z1.000
G18
G0 X5.800 Y0.000 Z1.000
G1 X5.800 Y0.000 Z-32.928
G1 X5.941 Y0.000 Z-32.787
G0 X6.650 Y0.000
G0 X6.650 Y0.000 Z-38.572
G0 X6.000 Y0.000 Z-38.572
G1 X5.800 Y0.000 Z-38.572
G1 X5.800 Y0.000 Z-42.000
G0 X6.650 Y0.000 Z-42.000
G0 X6.650 Y0.000 Z1.000
G18
G0 X5.600 Y0.000 Z1.000
G1 X5.600 Y0.000 Z-32.550
G1 X5.741 Y0.000 Z-32.408
G0 X6.650 Y0.000
G0 X6.650 Y0.000 Z-38.950
G0 X5.800 Y0.000 Z-38.950
G1 X5.600 Y0.000 Z-38.950
G1 X5.600 Y0.000 Z-42.000
G0 X6.650 Y0.000 Z-42.000
G0 X6.650 Y0.000 Z1.000
G18
G0 X5.400 Y0.000 Z1.000
G1 X5.400 Y0.000 Z-32.223
G1 X5.541 Y0.000 Z-32.081
G0 X6.650 Y0.000
G0 X6.650 Y0.000 Z-39.277
G0 X5.600 Y0.000 Z-39.277
G1 X5.400 Y0.000 Z-39.277
G1 X5.400 Y0.000 Z-42.000
G0 X6.650 Y0.000 Z-42.000
G0 X6.650 Y0.000 Z1.000
G18
G0 X5.200 Y0.000 Z1.000
G1 X5.200 Y0.000 Z-31.934
G1 X5.341 Y0.000 Z-31.792
G0 X6.650 Y0.000
G0 X6.650 Y0.000 Z-39.566
G0 X5.400 Y0.000 Z-39.566
G1 X5.200 Y0.000 Z-39.566
G1 X5.200 Y0.000 Z-42.000
G0 X6.650 Y0.000 Z-42.000
G0 X6.650 Y0.000 Z1.000
G18
G0 X5.000 Y0.000 Z1.000
G1 X5.000 Y0.000 Z-31.675
G1 X5.141 Y0.000 Z-31.534
G0 X6.650 Y0.000
G0 X6.650 Y0.000 Z-39.825
G0 X5.200 Y0.000 Z-39.825
G1 X5.000 Y0.000 Z-39.825
G1 X5.000 Y0.000 Z-42.000
G0 X6.650 Y0.000 Z-42.000
G0 X6.650 Y0.000 Z1.000
G18
G0 X4.800 Y0.000 Z1.000
G1 X4.800 Y0.000 Z-31.442
G1 X4.941 Y0.000 Z-31.300
G0 X6.650 Y0.000
G0 X6.650 Y0.000 Z-40.058
G0 X5.000 Y0.000 Z-40.058
G1 X4.800 Y0.000 Z-40.058
G1 X4.800 Y0.000 Z-42.000
G0 X6.650 Y0.000 Z-42.000
G0 X6.650 Y0.000 Z1.000
G18
G0 X4.600 Y0.000 Z1.000
G1 X4.600 Y0.000 Z-31.229
G1 X4.741 Y0.000 Z-31.087
G0 X6.650 Y0.000
G0 X6.650 Y0.000 Z-40.271
G0 X4.800 Y0.000 Z-40.271
G1 X4.600 Y0.000 Z-40.271
G1 X4.600 Y0.000 Z-42.000
G0 X6.650 Y0.000 Z-42.000
G0 X6.650 Y0.000 Z1.000
G18
G0 X4.400 Y0.000 Z1.000
G1 X4.400 Y0.000 Z-31.034
G1 X4.541 Y0.000 Z-30.892
G0 X6.650 Y0.000
G0 X6.650 Y0.000 Z-40.466
G0 X4.600 Y0.000 Z-40.466
G1 X4.400 Y0.000 Z-40.466
G1 X4.400 Y0.000 Z-42.000
G0 X6.650 Y0.000 Z-42.000
G0 X6.650 Y0.000 Z1.000
G18
G0 X4.200 Y0.000 Z1.000
G1 X4.200 Y0.000 Z-30.855
G1 X4.341 Y0.000 Z-30.713
G0 X6.650 Y0.000
G0 X6.650 Y0.000 Z-40.645
G0 X4.400 Y0.000 Z-40.645
G1 X4.200 Y0.000 Z-40.645
G1 X4.200 Y0.000 Z-42.000
G0 X6.650 Y0.000 Z-42.000
G0 X6.650 Y0.000 Z1.000
G18
G0 X4.000 Y0.000 Z1.000
G1 X4.000 Y0.000 Z-30.690
G1 X4.141 Y0.000 Z-30.549
G0 X6.650 Y0.000
G0 X6.650 Y0.000 Z-40.810
G0 X4.200 Y0.000 Z-40.810
G1 X4.000 Y0.000 Z-40.810
G1 X4.000 Y0.000 Z-42.000
G0 X6.650 Y0.000 Z-42.000
G0 X6.650 Y0.000 Z1.000
G18
G0 X3.800 Y0.000 Z1.000
G1 X3.800 Y0.000 Z-2.672
G1 X3.941 Y0.000 Z-2.530
G0 X4.400 Y0.000
G0 X4.400 Y0.000 Z-5.140
G0 X4.000 Y0.000 Z-5.140
G1 X3.800 Y0.000 Z-5.140
G1 X3.800 Y0.000 Z-28.083
G1 X3.941 Y0.000 Z-27.942
G0 X4.400 Y0.000 Z-27.942
G0 X4.400 Y0.000 Z1.000
G18
G0 X3.600 Y0.000 Z1.000
G1 X3.600 Y0.000 Z-2.124
G1 X3.741 Y0.000 Z-1.983
G0 X4.200 Y0.000
G0 X4.200 Y0.000 Z-5.678
G0 X3.800 Y0.000 Z-5.678
G1 X3.600 Y0.000 Z-5.678
G1 X3.600 Y0.000 Z-25.604
G1 X3.741 Y0.000 Z-25.463
G0 X4.200 Y0.000 Z-25.463
G0 X4.200 Y0.000 Z1.000
G18
G0 X3.400 Y0.000 Z1.000
G1 X3.400 Y0.000 Z-1.739
G1 X3.541 Y0.000 Z-1.598
G0 X4.150 Y0.000
G0 X4.150 Y0.000 Z-6.060
G0 X3.600 Y0.000 Z-6.060
G1 X3.400 Y0.000 Z-6.060
G1 X3.400 Y0.000 Z-23.126
G1 X3.541 Y0.000 Z-22.984
G0 X4.160 Y0.000 Z-22.984
G0 X4.160 Y0.000 Z1.000
G18
G0 X3.200 Y0.000 Z1.000
G1 X3.200 Y0.000 Z-1.434
G1 X3.341 Y0.000 Z-1.293
G0 X4.150 Y0.000
G0 X4.150 Y0.000 Z-6.364
G0 X3.400 Y0.000 Z-6.364
G1 X3.200 Y0.000 Z-6.364
G1 X3.200 Y0.000 Z-20.647
G1 X3.341 Y0.000 Z-20.506
G0 X4.160 Y0.000 Z-20.506
G0 X4.160 Y0.000 Z1.000
G18
G0 X3.000 Y0.000 Z1.000
G1 X3.000 Y0.000 Z-1.180
G1 X3.141 Y0.000 Z-1.039
G0 X4.150 Y0.000
G0 X4.150 Y0.000 Z-6.618
G0 X3.200 Y0.000 Z-6.618
G1 X3.000 Y0.000 Z-6.618
G1 X3.000 Y0.000 Z-18.169
G1 X3.141 Y0.000 Z-18.027
G0 X4.160 Y0.000 Z-18.027
G0 X4.160 Y0.000 Z1.000
G18
G0 X2.800 Y0.000 Z1.000
G1 X2.800 Y0.000 Z-0.964
G1 X2.941 Y0.000 Z-0.822
G0 X4.150 Y0.000
G0 X4.150 Y0.000 Z-6.834
G0 X3.000 Y0.000 Z-6.834
G1 X2.800 Y0.000 Z-6.834
G1 X2.800 Y0.000 Z-15.690
G1 X2.941 Y0.000 Z-15.549
G0 X4.160 Y0.000 Z-15.549
G0 X4.160 Y0.000 Z1.000
G18
G0 X2.600 Y0.000 Z1.000
G1 X2.600 Y0.000 Z-0.776
G1 X2.741 Y0.000 Z-0.635
G0 X4.150 Y0.000
G0 X4.150 Y0.000 Z-7.022
G0 X2.800 Y0.000 Z-7.022
G1 X2.600 Y0.000 Z-7.022
G1 X2.600 Y0.000 Z-13.212
G1 X2.741 Y0.000 Z-13.070
G0 X4.160 Y0.000 Z-13.070
G0 X4.160 Y0.000 Z1.000
G18
G0 X2.400 Y0.000 Z1.000
G1 X2.400 Y0.000 Z-0.613
G1 X2.541 Y0.000 Z-0.471
G0 X4.150 Y0.000
G0 X4.150 Y0.000 Z-7.186
G0 X2.600 Y0.000 Z-7.186
G1 X2.400 Y0.000 Z-7.186
G1 X2.400 Y0.000 Z-10.733
G1 X2.541 Y0.000 Z-10.592
G0 X4.160 Y0.000 Z-10.592
G0 X4.160 Y0.000 Z1.000
G18
G0 X2.200 Y0.000 Z1.000
G1 X2.200 Y0.000 Z-0.469
G1 X2.341 Y0.000 Z-0.328
G0 X4.150 Y0.000
G0 X4.150 Y0.000 Z-7.330
G0 X2.400 Y0.000 Z-7.330
G1 X2.200 Y0.000 Z-7.330
G1 X2.200 Y0.000 Z-8.255
G1 X2.341 Y0.000 Z-8.113
G0 X4.160 Y0.000 Z-8.113
G0 X4.160 Y0.000 Z1.000
G18
G0 X2.000 Y0.000 Z1.000
G1 X2.000 Y0.000 Z-0.344
G1 X2.141 Y0.000 Z-0.202
G0 X4.150 Y0.000 Z-0.202
G0 X4.150 Y0.000 Z1.000
G18
G0 X1.800 Y0.000 Z1.000
G1 X1.800 Y0.000 Z-0.234
G1 X1.941 Y0.000 Z-0.093
G0 X4.150 Y0.000 Z-0.093
G0 X4.150 Y0.000 Z1.000
G18
G0 X1.600 Y0.000 Z1.000
G1 X1.600 Y0.000 Z-0.139
G1 X1.741 Y0.000 Z0.003
G0 X4.150 Y0.000 Z0.003
G0 X4.150 Y0.000 Z1.000
G18
G0 X1.400 Y0.000 Z1.000
G1 X1.400 Y0.000 Z-0.056
G1 X1.541 Y0.000 Z0.085
G0 X4.150 Y0.000 Z0.085
G0 X4.150 Y0.000 Z1.000
G18
G0 X1.200 Y0.000 Z1.000
G1 X1.200 Y0.000 Z0.013
G1 X1.341 Y0.000 Z0.155
G0 X4.150 Y0.000 Z0.155
G0 X4.150 Y0.000 Z1.000
G18
G0 X1.000 Y0.000 Z1.000
G1 X1.000 Y0.000 Z0.071
G1 X1.141 Y0.000 Z0.213
G0 X4.150 Y0.000 Z0.213
G0 X4.150 Y0.000 Z1.000
G18
G0 X0.800 Y0.000 Z1.000
G1 X0.800 Y0.000 Z0.118
G1 X0.941 Y0.000 Z0.260
G0 X4.150 Y0.000 Z0.260
G0 X4.150 Y0.000 Z1.000
G18
G0 X0.600 Y0.000 Z1.000
G1 X0.600 Y0.000 Z0.154
G1 X0.741 Y0.000 Z0.296
G0 X4.150 Y0.000 Z0.296
G0 X4.150 Y0.000 Z1.000
G18
G0 X0.400 Y0.000 Z1.000
G1 X0.400 Y0.000 Z0.180
G1 X0.541 Y0.000 Z0.321
G0 X4.150 Y0.000 Z0.321
G0 X4.150 Y0.000 Z1.000
G18
G0 X0.200 Y0.000 Z1.000
G1 X0.200 Y0.000 Z0.195
G1 X0.341 Y0.000 Z0.336
G0 X4.150 Y0.000 Z0.336
G0 X4.150 Y0.000 Z1.000
(Finish operation: TurnRough)
F30.0
(Begin operation: TurnProfile)
(Path: TurnProfile)
(TurnProfile)
G18
G0 X-0.000 Y0.000 Z0.100
G3 X3.850 Z-3.746 I0.000 K-3.850
G3 X2.032 Z-7.320 I-3.878 K-0.276
G1 X2.025 Y0.000 Z-7.324
G1 X3.850 Y0.000 Z-29.946
G1 X3.850 Y0.000 Z-30.700
G3 X3.850 Z-40.800 I-3.850 K-5.050
G1 X3.850 Y0.000 Z-42.000
G0 X6.550 Y0.000
G0 X6.550 Y0.000 Z-42.000
G0 X3.750 Y0.000 Z-42.000
G1 X3.750 Y0.000 Z-42.000
G0 X6.550 Y0.000 Z-42.000
G0 X6.550 Y0.000 Z1.000
G18
G0 X0.000 Y0.000 Z-0.000
G3 X3.750 Z-3.750 I0.000 K-3.750
G3 X1.979 Z-7.235 I-3.778 K-0.273
G1 X1.920 Y0.000 Z-7.272
G1 X3.750 Y0.000 Z-29.950
G1 X3.750 Y0.000 Z-29.950
G1 X3.750 Y0.000 Z-29.950
G1 X3.750 Y0.000 Z-30.750
G3 X3.750 Z-40.750 I-3.750 K-5.000
G1 X3.750 Y0.000 Z-42.000
G1 X3.750 Y0.000 Z-42.000
G0 X6.450 Y0.000 Z-42.000
G0 X6.450 Y0.000 Z-0.000
(Finish operation: TurnProfile)
(Begin postamble)
M5
G17 G90
M2
