( Created by GrblGru:GCodeCreator )
( 19.03.2023 16:45:19 )

( General )
( Start diameter = 7.35 )
( Direction = LEFT )
( Smart Clearance = True )
( Free Entry = False )
( Radius min. = 0 )

( Rough )
( Active = True )
( Plunge Feedrate = 60 )
( Feedrate = 60 )
( Rapid Feedrate = 160 )
( Infeed depth = 0.1 )
( Indent left = 0 )
( Indent right = 0 )

( Finish )
( Active = True )
( Plunge Feedrate = 60 )
( Feedrate = 60 )
( Rapid Feedrate = 160 )
( Infeed depth = 0.05 )
( Indent left = -0.1 )
( Indent right = -1 )

G90
G1 F1000
( Back to last free line )
F160.00 X0.000
( Move fast Z axis )
F160.00 Z0.000
( Plunge in fast )
F160.00 X0.249

( Plunge in slowly )
F60.00 X0.149

( Turning )
F60.00 Z-12.194
( #retraction )
F160.00 X0.649
( Move fast Z axis )
F160.00 Z0.000
F60.00 X0.049

( Turning )
F60.00 Z-12.194
( #retraction )
F160.00 X0.549
( Move fast Z axis )
F160.00 Z0.000
F60.00 X-0.051

( Turning )
F60.00 Z-12.194
( #retraction )
F160.00 X0.449
( Move fast Z axis )
F160.00 Z0.000
F60.00 X-0.151

( Turning )
F60.00 Z-12.194
( #retraction )
F160.00 X0.349
( Move fast Z axis )
F160.00 Z0.000
F60.00 X-0.251

( Turning )
F60.00 Z-12.194
( #retraction )
F160.00 X0.249
( Move fast Z axis )
F160.00 Z0.000
F60.00 X-0.351

( Turning )
F60.00 Z-12.194
( #retraction )
F160.00 X0.149
( Move fast Z axis )
F160.00 Z0.000
F60.00 X-0.451

( Turning )
F60.00 Z-12.194
( #retraction )
F160.00 X0.049
( Move fast Z axis )
F160.00 Z-0.150
F60.00 X-0.551

( Turning )
F60.00 Z-4.072
( #retraction )
F160.00 X-0.051
( Move fast Z axis )
F160.00 Z-0.250
F60.00 X-0.651

( Turning )
F60.00 Z-3.692
( #retraction )
F160.00 X-0.151
( Move fast Z axis )
F160.00 Z-0.350
F60.00 X-0.751

( Turning )
F60.00 Z-3.418
( #retraction )
F160.00 X-0.251
( Move fast Z axis )
F160.00 Z-0.450
F60.00 X-0.851

( Turning )
F60.00 Z-3.214
( #retraction )
F160.00 X-0.351
( Move fast Z axis )
F160.00 Z-0.450
F60.00 X-0.951

( Turning )
F60.00 Z-3.031
( #retraction )
F160.00 X-0.451
( Move fast Z axis )
F160.00 Z-0.550
F60.00 X-1.051

( Turning )
F60.00 Z-2.782
( #retraction )
F160.00 X-0.551
( Move fast Z axis )
F160.00 Z-0.650
F60.00 X-1.151

( Turning )
F60.00 Z-2.633
( #retraction )
F160.00 X-0.651
( Move fast Z axis )
F160.00 Z-0.650
F60.00 X-1.251

( Turning )
F60.00 Z-2.518
( #retraction )
F160.00 X-0.751
( Move fast Z axis )
F160.00 Z-0.750
F60.00 X-1.351

( Turning )
F60.00 Z-2.406
( #retraction )
F160.00 X-0.851
( Move fast Z axis )
F160.00 Z-0.850
F60.00 X-1.451

( Turning )
F60.00 Z-2.293
( #retraction )
F160.00 X-0.951
( Move fast Z axis )
F160.00 Z-0.950
F60.00 X-1.551

( Turning )
F60.00 Z-2.208
( #retraction )
F160.00 X-1.051
( Move fast Z axis )
F160.00 Z-0.950
F60.00 X-1.651

( Turning )
F60.00 Z-2.123
( #retraction )
F160.00 X-1.151
( Move fast Z axis )
F160.00 Z-1.050
F60.00 X-1.751

( Turning )
F60.00 Z-2.038
( #retraction )
F160.00 X-1.251
( Move fast Z axis )
F160.00 Z-1.150
F60.00 X-1.851

( Turning )
F60.00 Z-1.967
( #retraction )
F160.00 X-1.351
( Move fast Z axis )
F160.00 Z-1.150
F60.00 X-1.951

( Turning )
F60.00 Z-1.903
( #retraction )
F160.00 X-1.451
( Move fast Z axis )
F160.00 Z-1.250
F60.00 X-2.051

( Turning )
F60.00 Z-1.838
( Back to last free line )
F160.00 X0.000
( Move fast Z axis )
F160.00 Z-5.332
( Plunge in fast )
F160.00 X-0.451

( Plunge in slowly )
F60.00 X-0.551

( Turning )
F60.00 Z-12.194
( #retraction )
F160.00 X-0.051
( Move fast Z axis )
F160.00 Z-5.713
F60.00 X-0.651

( Turning )
F60.00 Z-12.194
( #retraction )
F160.00 X-0.151
( Move fast Z axis )
F160.00 Z-5.978
F60.00 X-0.751

( Turning )
F60.00 Z-12.194
( #retraction )
F160.00 X-0.251
( Move fast Z axis )
F160.00 Z-6.181
F60.00 X-0.851

( Turning )
F60.00 Z-12.194
( #retraction )
F160.00 X-0.351
( Move fast Z axis )
F160.00 Z-6.365
F60.00 X-0.951

( Turning )
F60.00 Z-12.194
( #retraction )
F160.00 X-0.451
( Move fast Z axis )
F160.00 Z-6.617
F60.00 X-1.051

( Turning )
F60.00 Z-12.194
( #retraction )
F160.00 X-0.551
( Move fast Z axis )
F160.00 Z-6.753
F60.00 X-1.151

( Turning )
F60.00 Z-12.194
( #retraction )
F160.00 X-0.651
( Move fast Z axis )
F160.00 Z-6.888
F60.00 X-1.251

( Turning )
F60.00 Z-12.194
( #retraction )
F160.00 X-0.751
( Move fast Z axis )
F160.00 Z-6.991
F60.00 X-1.351

( Turning )
F60.00 Z-12.194
( #retraction )
F160.00 X-0.851
( Move fast Z axis )
F160.00 Z-7.094
F60.00 X-1.451

( Turning )
F60.00 Z-12.194
( #retraction )
F160.00 X-0.951
( Move fast Z axis )
F160.00 Z-7.197
F60.00 X-1.551

( Turning )
F60.00 Z-12.194
( #retraction )
F160.00 X-1.051
( Move fast Z axis )
F160.00 Z-7.275
F60.00 X-1.651

( Turning )
F60.00 Z-12.194
( #retraction )
F160.00 X-1.151
( Move fast Z axis )
F160.00 Z-7.354
F60.00 X-1.751

( Turning )
F60.00 Z-12.194
( #retraction )
F160.00 X-1.251
( Move fast Z axis )
F160.00 Z-7.432
F60.00 X-1.851

( Turning )
F60.00 Z-11.534
( #retraction )
F160.00 X-1.351
( Move fast Z axis )
F160.00 Z-7.502
F60.00 X-1.951

( Turning )
F60.00 Z-10.277
( #retraction )
F160.00 X-1.451
( Move fast Z axis )
F160.00 Z-7.564
F60.00 X-2.051

( Turning )
F60.00 Z-9.020
( #retraction )
F160.00 X-1.551
( Move fast Z axis )
F160.00 Z-7.626
F60.00 X-2.151

( Turning )
F60.00 Z-7.763

( Back to startpoint )
G90
G1 F160.00 X0.000
F160.00 Z0.000

( #finalroughpath )
F160.00 Z-2.050
F60.00 X-1.802 Z-1.050
F60.00 X-1.943 Z-1.150
F60.00 X-2.087 Z-1.250
F60.00 X-2.169 Z-1.350
F60.00 X-2.169 Z-1.450
F60.00 X-2.169 Z-1.550
F60.00 X-2.169 Z-1.650
F60.00 X-2.169 Z-1.750
F60.00 X-2.169 Z-1.779
F60.00 X-2.085 Z-1.833
F60.00 X-2.001 Z-1.887
F60.00 X-1.919 Z-1.940
F60.00 X-1.913 Z-1.944
F60.00 X-1.894 Z-1.958
F60.00 X-1.818 Z-2.023
F60.00 X-1.743 Z-2.087
F60.00 X-1.666 Z-2.152
F60.00 X-1.590 Z-2.217
F60.00 X-1.563 Z-2.240
F60.00 X-1.550 Z-2.251
F60.00 X-1.548 Z-2.253
F60.00 X-1.540 Z-2.261
F60.00 X-1.474 Z-2.336
F60.00 X-1.407 Z-2.411
F60.00 X-1.341 Z-2.485
F60.00 X-1.275 Z-2.560
F60.00 X-1.251 Z-2.587
F60.00 X-1.252 Z-2.587
F60.00 X-1.243 Z-2.596
F60.00 X-1.231 Z-2.612
F60.00 X-1.176 Z-2.695
F60.00 X-1.120 Z-2.778
F60.00 X-1.063 Z-2.861
F60.00 X-1.007 Z-2.944
F60.00 X-0.989 Z-2.973
F60.00 X-0.987 Z-2.976
F60.00 X-0.973 Z-2.999
F60.00 X-0.929 Z-3.089
F60.00 X-0.885 Z-3.179
F60.00 X-0.841 Z-3.268
F60.00 X-0.797 Z-3.358
F60.00 X-0.781 Z-3.391
F60.00 X-0.771 Z-3.416
F60.00 X-0.770 Z-3.419
F60.00 X-0.739 Z-3.514
F60.00 X-0.706 Z-3.609
F60.00 X-0.676 Z-3.704
F60.00 X-0.645 Z-3.799
F60.00 X-0.634 Z-3.832
F60.00 X-0.633 Z-3.835
F60.00 X-0.626 Z-3.862
F60.00 X-0.608 Z-3.960
F60.00 X-0.590 Z-4.059
F60.00 X-0.572 Z-4.157
F60.00 X-0.554 Z-4.255
F60.00 X-0.547 Z-4.291
F60.00 X-0.545 Z-4.301
F60.00 X-0.543 Z-4.321
F60.00 X-0.538 Z-4.421
F60.00 X-0.534 Z-4.521
F60.00 X-0.528 Z-4.621
F60.00 X-0.525 Z-4.721
F60.00 X-0.523 Z-4.756
F60.00 X-0.523 Z-4.769
F60.00 X-0.524 Z-4.786
F60.00 X-0.533 Z-4.886
F60.00 X-0.540 Z-4.985
F60.00 X-0.549 Z-5.085
F60.00 X-0.558 Z-5.184
F60.00 X-0.561 Z-5.220
F60.00 X-0.562 Z-5.232
F60.00 X-0.566 Z-5.252
F60.00 X-0.590 Z-5.349
F60.00 X-0.611 Z-5.447
F60.00 X-0.635 Z-5.544
F60.00 X-0.656 Z-5.642
F60.00 X-0.664 Z-5.676
F60.00 X-0.669 Z-5.694
F60.00 X-0.670 Z-5.697
F60.00 X-0.673 Z-5.705
F60.00 X-0.709 Z-5.799
F60.00 X-0.744 Z-5.892
F60.00 X-0.779 Z-5.986
F60.00 X-0.814 Z-6.079
F60.00 X-0.824 Z-6.104
F60.00 X-0.825 Z-6.107
F60.00 X-0.832 Z-6.122
F60.00 X-0.840 Z-6.140
F60.00 X-0.888 Z-6.228
F60.00 X-0.936 Z-6.316
F60.00 X-0.984 Z-6.403
F60.00 X-1.030 Z-6.491
F60.00 X-1.049 Z-6.523
F60.00 X-1.060 Z-6.541
F60.00 X-1.065 Z-6.548
F60.00 X-1.124 Z-6.629
F60.00 X-1.183 Z-6.709
F60.00 X-1.243 Z-6.790
F60.00 X-1.302 Z-6.870
F60.00 X-1.318 Z-6.892
F60.00 X-1.320 Z-6.895
F60.00 X-1.330 Z-6.908
F60.00 X-1.343 Z-6.923
F60.00 X-1.412 Z-6.995
F60.00 X-1.482 Z-7.066
F60.00 X-1.552 Z-7.138
F60.00 X-1.621 Z-7.210
F60.00 X-1.646 Z-7.235
F60.00 X-1.663 Z-7.251
F60.00 X-1.669 Z-7.255
F60.00 X-1.746 Z-7.317
F60.00 X-1.825 Z-7.379
F60.00 X-1.904 Z-7.440
F60.00 X-1.982 Z-7.502
F60.00 X-2.010 Z-7.523
F60.00 X-2.015 Z-7.528
F60.00 X-2.031 Z-7.539
F60.00 X-2.106 Z-7.592
F60.00 X-2.179 Z-7.643
F60.00 X-2.191 Z-7.743
F60.00 X-2.183 Z-7.842
F60.00 X-2.175 Z-7.942
F60.00 X-2.167 Z-8.042
F60.00 X-2.159 Z-8.141
F60.00 X-2.151 Z-8.241
F60.00 X-2.143 Z-8.341
F60.00 X-2.135 Z-8.440
F60.00 X-2.129 Z-8.540
F60.00 X-2.121 Z-8.640
F60.00 X-2.113 Z-8.740
F60.00 X-2.105 Z-8.839
F60.00 X-2.096 Z-8.939
F60.00 X-2.088 Z-9.039
F60.00 X-2.080 Z-9.138
F60.00 X-2.072 Z-9.238
F60.00 X-2.064 Z-9.338
F60.00 X-2.056 Z-9.437
F60.00 X-2.048 Z-9.537
F60.00 X-2.040 Z-9.637
F60.00 X-2.032 Z-9.736
F60.00 X-2.024 Z-9.836
F60.00 X-2.017 Z-9.936
F60.00 X-2.010 Z-10.035
F60.00 X-2.002 Z-10.135
F60.00 X-1.993 Z-10.235
F60.00 X-1.985 Z-10.335
F60.00 X-1.977 Z-10.434
F60.00 X-1.969 Z-10.534
F60.00 X-1.961 Z-10.634
F60.00 X-1.953 Z-10.733
F60.00 X-1.945 Z-10.833
F60.00 X-1.937 Z-10.933
F60.00 X-1.929 Z-11.032
F60.00 X-1.922 Z-11.132
F60.00 X-1.914 Z-11.232
F60.00 X-1.906 Z-11.331
F60.00 X-1.899 Z-11.431
F60.00 X-1.890 Z-11.531
F60.00 X-1.882 Z-11.630
F60.00 X-1.874 Z-11.730
F60.00 X-1.866 Z-11.830
F60.00 X-1.858 Z-11.929
F60.00 X-1.854 Z-11.997

( Back to startpoint )
G90
G1 F160.00 X-0.050

( Finish )
F160.00 Z-2.100
F60.00 X-2.219 Z-1.100
F60.00 X-2.219 Z-1.200
F60.00 X-2.219 Z-1.300
F60.00 X-2.219 Z-1.400
F60.00 X-2.219 Z-1.500
F60.00 X-2.219 Z-1.600
F60.00 X-2.219 Z-1.700
F60.00 X-2.219 Z-1.800
F60.00 X-2.219 Z-1.806
F60.00 X-2.135 Z-1.860
F60.00 X-2.051 Z-1.914
F60.00 X-1.967 Z-1.968
F60.00 X-1.947 Z-1.981
F60.00 X-1.925 Z-1.997
F60.00 X-1.849 Z-2.062
F60.00 X-1.773 Z-2.127
F60.00 X-1.697 Z-2.191
F60.00 X-1.620 Z-2.256
F60.00 X-1.596 Z-2.277
F60.00 X-1.576 Z-2.296
F60.00 X-1.510 Z-2.371
F60.00 X-1.443 Z-2.446
F60.00 X-1.377 Z-2.520
F60.00 X-1.310 Z-2.595
F60.00 X-1.289 Z-2.619
F60.00 X-1.273 Z-2.640
F60.00 X-1.217 Z-2.723
F60.00 X-1.161 Z-2.806
F60.00 X-1.105 Z-2.889
F60.00 X-1.049 Z-2.972
F60.00 X-1.031 Z-2.999
F60.00 X-1.017 Z-3.023
F60.00 X-0.973 Z-3.113
F60.00 X-0.929 Z-3.203
F60.00 X-0.885 Z-3.292
F60.00 X-0.841 Z-3.382
F60.00 X-0.827 Z-3.411
F60.00 X-0.817 Z-3.436
F60.00 X-0.786 Z-3.531
F60.00 X-0.753 Z-3.626
F60.00 X-0.723 Z-3.721
F60.00 X-0.692 Z-3.816
F60.00 X-0.682 Z-3.846
F60.00 X-0.675 Z-3.872
F60.00 X-0.657 Z-3.970
F60.00 X-0.638 Z-4.069
F60.00 X-0.619 Z-4.167
F60.00 X-0.602 Z-4.265
F60.00 X-0.596 Z-4.297
F60.00 X-0.593 Z-4.325
F60.00 X-0.588 Z-4.425
F60.00 X-0.584 Z-4.525
F60.00 X-0.578 Z-4.625
F60.00 X-0.574 Z-4.725
F60.00 X-0.573 Z-4.757
F60.00 X-0.574 Z-4.784
F60.00 X-0.583 Z-4.884
F60.00 X-0.592 Z-4.983
F60.00 X-0.599 Z-5.083
F60.00 X-0.608 Z-5.182
F60.00 X-0.611 Z-5.215
F60.00 X-0.615 Z-5.242
F60.00 X-0.637 Z-5.339
F60.00 X-0.660 Z-5.437
F60.00 X-0.682 Z-5.534
F60.00 X-0.706 Z-5.632
F60.00 X-0.712 Z-5.663
F60.00 X-0.720 Z-5.689
F60.00 X-0.756 Z-5.783
F60.00 X-0.791 Z-5.876
F60.00 X-0.826 Z-5.970
F60.00 X-0.861 Z-6.063
F60.00 X-0.873 Z-6.093
F60.00 X-0.885 Z-6.118
F60.00 X-0.933 Z-6.206
F60.00 X-0.981 Z-6.294
F60.00 X-1.028 Z-6.381
F60.00 X-1.075 Z-6.469
F60.00 X-1.092 Z-6.498
F60.00 X-1.107 Z-6.521
F60.00 X-1.165 Z-6.602
F60.00 X-1.225 Z-6.682
F60.00 X-1.284 Z-6.763
F60.00 X-1.343 Z-6.843
F60.00 X-1.362 Z-6.869
F60.00 X-1.380 Z-6.889
F60.00 X-1.449 Z-6.961
F60.00 X-1.519 Z-7.032
F60.00 X-1.589 Z-7.104
F60.00 X-1.658 Z-7.176
F60.00 X-1.681 Z-7.199
F60.00 X-1.701 Z-7.217
F60.00 X-1.778 Z-7.279
F60.00 X-1.857 Z-7.341
F60.00 X-1.936 Z-7.402
F60.00 X-2.014 Z-7.464
F60.00 X-2.041 Z-7.484
F60.00 X-2.059 Z-7.497
F60.00 X-2.133 Z-7.550
F60.00 X-2.208 Z-7.603
F60.00 X-2.231 Z-7.617
F60.00 X-2.243 Z-7.717
F60.00 X-2.235 Z-7.816
F60.00 X-2.227 Z-7.916
F60.00 X-2.219 Z-8.016
F60.00 X-2.211 Z-8.115
F60.00 X-2.203 Z-8.215
F60.00 X-2.195 Z-8.315
F60.00 X-2.189 Z-8.414
F60.00 X-2.181 Z-8.514
F60.00 X-2.173 Z-8.614
F60.00 X-2.165 Z-8.714
F60.00 X-2.156 Z-8.813
F60.00 X-2.148 Z-8.913
F60.00 X-2.140 Z-9.013
F60.00 X-2.132 Z-9.112
F60.00 X-2.124 Z-9.212
F60.00 X-2.116 Z-9.312
F60.00 X-2.108 Z-9.411
F60.00 X-2.100 Z-9.511
F60.00 X-2.092 Z-9.611
F60.00 X-2.086 Z-9.710
F60.00 X-2.078 Z-9.810
F60.00 X-2.070 Z-9.910
F60.00 X-2.061 Z-10.009
F60.00 X-2.053 Z-10.109
F60.00 X-2.045 Z-10.209
F60.00 X-2.037 Z-10.309
F60.00 X-2.029 Z-10.408
F60.00 X-2.021 Z-10.508
F60.00 X-2.013 Z-10.608
F60.00 X-2.005 Z-10.707
F60.00 X-1.997 Z-10.807
F60.00 X-1.991 Z-10.907
F60.00 X-1.983 Z-11.006
F60.00 X-1.975 Z-11.106
F60.00 X-1.966 Z-11.206
F60.00 X-1.958 Z-11.305
F60.00 X-1.950 Z-11.405
F60.00 X-1.942 Z-11.505
F60.00 X-1.934 Z-11.604
F60.00 X-1.926 Z-11.704
F60.00 X-1.918 Z-11.804
F60.00 X-1.910 Z-11.904
F60.00 X-1.904 Z-12.000
F60.00 X-1.904 Z-12.001

( Back to startpoint )
G90
G1 F160.00 X-0.050
