( Created by GrblGru:GCodeCreator )
( 19.03.2023 16:45:19 )

( General )
( Start diameter = 7.35 )
( Direction = LEFT )
( Smart Clearance = True )
( Free Entry = False )
( Radius min. = 0 )

( Rough )
( Active = True )
( Plunge Feedrate = 60 )
( Feedrate = 60 )
( Rapid Feedrate = 160 )
( Infeed depth = 0.1 )
( Indent left = 0 )
( Indent right = 0 )

( Finish )
( Active = True )
( Plunge Feedrate = 60 )
( Feedrate = 60 )
( Rapid Feedrate = 160 )
( Infeed depth = 0.05 )
( Indent left = -0.1 )
( Indent right = -1 )

G90
G1 F1000
( Back to last free line )
F160.00 X0.000 Y0
( Move fast Z axis )
F160.00 Z0.000
( Plunge in fast )
F160.00 X0.349     ; BKLS X0.249 -> X0.349

( Plunge in slowly )
F60.00 X0.149

( Turning )
F60.00 Z-12.194
( #retraction )
F160.00 X0.749     ; BKLS X0.649 -> X0.749
( Move fast Z axis )
F160.00 Z0.000
F60.00 X0.049

( Turning )
F60.00 Z-12.194
( #retraction )
F160.00 X0.649     ; BKLS X0.549 -> X0.649
( Move fast Z axis )
F160.00 Z0.000
F60.00 X-0.051

( Turning )
F60.00 Z-12.194
( #retraction )
F160.00 X0.549     ; BKLS X0.449 -> X0.549
( Move fast Z axis )
F160.00 Z0.000
F60.00 X-0.151

( Turning )
F60.00 Z-12.194
( #retraction )
F160.00 X0.449     ; BKLS X0.349 -> X0.449
( Move fast Z axis )
F160.00 Z0.000
F60.00 X-0.251

( Turning )
F60.00 Z-12.194
( #retraction )
F160.00 X0.349     ; BKLS X0.249 -> X0.349
( Move fast Z axis )
F160.00 Z0.000
F60.00 X-0.351

( Turning )
F60.00 Z-12.194
( #retraction )
F160.00 X0.249     ; BKLS X0.149 -> X0.249
( Move fast Z axis )
F160.00 Z0.000
F60.00 X-0.451

( Turning )
F60.00 Z-12.194
( #retraction )
F160.00 X0.149     ; BKLS X0.049 -> X0.149
( Move fast Z axis )
F160.00 Z-0.150
F60.00 X-0.551

( Turning )
F60.00 Z-4.072
( #retraction )
F160.00 X0.049     ; BKLS X-0.051 -> X0.049
( Move fast Z axis )
F160.00 Z-0.250
F60.00 X-0.651

( Turning )
F60.00 Z-3.692
( #retraction )
F160.00 X-0.051     ; BKLS X-0.151 -> X-0.051
( Move fast Z axis )
F160.00 Z-0.350
F60.00 X-0.751

( Turning )
F60.00 Z-3.418
( #retraction )
F160.00 X-0.151     ; BKLS X-0.251 -> X-0.151
( Move fast Z axis )
F160.00 Z-0.450
F60.00 X-0.851

( Turning )
F60.00 Z-3.214
( #retraction )
F160.00 X-0.251     ; BKLS X-0.351 -> X-0.251
( Move fast Z axis )
F160.00 Z-0.450
F60.00 X-0.951

( Turning )
F60.00 Z-3.031
( #retraction )
F160.00 X-0.351     ; BKLS X-0.451 -> X-0.351
( Move fast Z axis )
F160.00 Z-0.550
F60.00 X-1.051

( Turning )
F60.00 Z-2.782
( #retraction )
F160.00 X-0.451     ; BKLS X-0.551 -> X-0.451
( Move fast Z axis )
F160.00 Z-0.650
F60.00 X-1.151

( Turning )
F60.00 Z-2.633
( #retraction )
F160.00 X-0.551     ; BKLS X-0.651 -> X-0.551
( Move fast Z axis )
F160.00 Z-0.650
F60.00 X-1.251

( Turning )
F60.00 Z-2.518
( #retraction )
F160.00 X-0.651     ; BKLS X-0.751 -> X-0.651
( Move fast Z axis )
F160.00 Z-0.750
F60.00 X-1.351

( Turning )
F60.00 Z-2.406
( #retraction )
F160.00 X-0.751     ; BKLS X-0.851 -> X-0.751
( Move fast Z axis )
F160.00 Z-0.850
F60.00 X-1.451

( Turning )
F60.00 Z-2.293
( #retraction )
F160.00 X-0.851     ; BKLS X-0.951 -> X-0.851
( Move fast Z axis )
F160.00 Z-0.950
F60.00 X-1.551

( Turning )
F60.00 Z-2.208
( #retraction )
F160.00 X-0.951     ; BKLS X-1.051 -> X-0.951
( Move fast Z axis )
F160.00 Z-0.950
F60.00 X-1.651

( Turning )
F60.00 Z-2.123
( #retraction )
F160.00 X-1.051     ; BKLS X-1.151 -> X-1.051
( Move fast Z axis )
F160.00 Z-1.050
F60.00 X-1.751

( Turning )
F60.00 Z-2.038
( #retraction )
F160.00 X-1.151     ; BKLS X-1.251 -> X-1.151
( Move fast Z axis )
F160.00 Z-1.150
F60.00 X-1.851

( Turning )
F60.00 Z-1.967
( #retraction )
F160.00 X-1.251     ; BKLS X-1.351 -> X-1.251
( Move fast Z axis )
F160.00 Z-1.150
F60.00 X-1.951

( Turning )
F60.00 Z-1.903
( #retraction )
F160.00 X-1.351     ; BKLS X-1.451 -> X-1.351
( Move fast Z axis )
F160.00 Z-1.250
F60.00 X-2.051

( Turning )
F60.00 Z-1.838
( Back to last free line )
F160.00 X0.100     ; BKLS X0.000 -> X0.100
( Move fast Z axis )
F160.00 Z-5.332
( Plunge in fast )
F160.00 X-0.451

( Plunge in slowly )
F60.00 X-0.551

( Turning )
F60.00 Z-12.194
( #retraction )
F160.00 X0.049     ; BKLS X-0.051 -> X0.049
( Move fast Z axis )
F160.00 Z-5.713
F60.00 X-0.651

( Turning )
F60.00 Z-12.194
( #retraction )
F160.00 X-0.051     ; BKLS X-0.151 -> X-0.051
( Move fast Z axis )
F160.00 Z-5.978
F60.00 X-0.751

( Turning )
F60.00 Z-12.194
( #retraction )
F160.00 X-0.151     ; BKLS X-0.251 -> X-0.151
( Move fast Z axis )
F160.00 Z-6.181
F60.00 X-0.851

( Turning )
F60.00 Z-12.194
( #retraction )
F160.00 X-0.251     ; BKLS X-0.351 -> X-0.251
( Move fast Z axis )
F160.00 Z-6.365
F60.00 X-0.951

( Turning )
F60.00 Z-12.194
( #retraction )
F160.00 X-0.351     ; BKLS X-0.451 -> X-0.351
( Move fast Z axis )
F160.00 Z-6.617
F60.00 X-1.051

( Turning )
F60.00 Z-12.194
( #retraction )
F160.00 X-0.451     ; BKLS X-0.551 -> X-0.451
( Move fast Z axis )
F160.00 Z-6.753
F60.00 X-1.151

( Turning )
F60.00 Z-12.194
( #retraction )
F160.00 X-0.551     ; BKLS X-0.651 -> X-0.551
( Move fast Z axis )
F160.00 Z-6.888
F60.00 X-1.251

( Turning )
F60.00 Z-12.194
( #retraction )
F160.00 X-0.651     ; BKLS X-0.751 -> X-0.651
( Move fast Z axis )
F160.00 Z-6.991
F60.00 X-1.351

( Turning )
F60.00 Z-12.194
( #retraction )
F160.00 X-0.751     ; BKLS X-0.851 -> X-0.751
( Move fast Z axis )
F160.00 Z-7.094
F60.00 X-1.451

( Turning )
F60.00 Z-12.194
( #retraction )
F160.00 X-0.851     ; BKLS X-0.951 -> X-0.851
( Move fast Z axis )
F160.00 Z-7.197
F60.00 X-1.551

( Turning )
F60.00 Z-12.194
( #retraction )
F160.00 X-0.951     ; BKLS X-1.051 -> X-0.951
( Move fast Z axis )
F160.00 Z-7.275
F60.00 X-1.651

( Turning )
F60.00 Z-12.194
( #retraction )
F160.00 X-1.051     ; BKLS X-1.151 -> X-1.051
( Move fast Z axis )
F160.00 Z-7.354
F60.00 X-1.751

( Turning )
F60.00 Z-12.194
( #retraction )
F160.00 X-1.151     ; BKLS X-1.251 -> X-1.151
( Move fast Z axis )
F160.00 Z-7.432
F60.00 X-1.851

( Turning )
F60.00 Z-11.534
( #retraction )
F160.00 X-1.251     ; BKLS X-1.351 -> X-1.251
( Move fast Z axis )
F160.00 Z-7.502
F60.00 X-1.951

( Turning )
F60.00 Z-10.277
( #retraction )
F160.00 X-1.351     ; BKLS X-1.451 -> X-1.351
( Move fast Z axis )
F160.00 Z-7.564
F60.00 X-2.051

( Turning )
F60.00 Z-9.020
( #retraction )
F160.00 X-1.451     ; BKLS X-1.551 -> X-1.451
( Move fast Z axis )
F160.00 Z-7.626
F60.00 X-2.151

( Turning )
F60.00 Z-7.763

( Back to startpoint )
G90
G1 F160.00 X0.100     ; BKLS X0.000 -> X0.100
F160.00 Z0.000

( #finalroughpath )
F160.00 Z-2.050
F60.00 X-1.802 Z-1.050
F60.00 X-1.943 Z-1.150
F60.00 X-2.087 Z-1.250
F60.00 X-2.169 Z-1.350
F60.00 X-2.169 Z-1.450
F60.00 X-2.169 Z-1.550
F60.00 X-2.169 Z-1.650
F60.00 X-2.169 Z-1.750
F60.00 X-2.169 Z-1.779
F60.00 X-1.985 Z-1.833     ; BKLS X-2.085 -> X-1.985
F60.00 X-1.901 Z-1.887     ; BKLS X-2.001 -> X-1.901
F60.00 X-1.819 Z-1.940     ; BKLS X-1.919 -> X-1.819
F60.00 X-1.813 Z-1.944     ; BKLS X-1.913 -> X-1.813
F60.00 X-1.794 Z-1.958     ; BKLS X-1.894 -> X-1.794
F60.00 X-1.718 Z-2.023     ; BKLS X-1.818 -> X-1.718
F60.00 X-1.643 Z-2.087     ; BKLS X-1.743 -> X-1.643
F60.00 X-1.566 Z-2.152     ; BKLS X-1.666 -> X-1.566
F60.00 X-1.490 Z-2.217     ; BKLS X-1.590 -> X-1.490
F60.00 X-1.463 Z-2.240     ; BKLS X-1.563 -> X-1.463
F60.00 X-1.450 Z-2.251     ; BKLS X-1.550 -> X-1.450
F60.00 X-1.448 Z-2.253     ; BKLS X-1.548 -> X-1.448
F60.00 X-1.440 Z-2.261     ; BKLS X-1.540 -> X-1.440
F60.00 X-1.374 Z-2.336     ; BKLS X-1.474 -> X-1.374
F60.00 X-1.307 Z-2.411     ; BKLS X-1.407 -> X-1.307
F60.00 X-1.241 Z-2.485     ; BKLS X-1.341 -> X-1.241
F60.00 X-1.175 Z-2.560     ; BKLS X-1.275 -> X-1.175
F60.00 X-1.151 Z-2.587     ; BKLS X-1.251 -> X-1.151
F60.00 X-1.152 Z-2.587     ; BKLS X-1.252 -> X-1.152
F60.00 X-1.143 Z-2.596     ; BKLS X-1.243 -> X-1.143
F60.00 X-1.131 Z-2.612     ; BKLS X-1.231 -> X-1.131
F60.00 X-1.076 Z-2.695     ; BKLS X-1.176 -> X-1.076
F60.00 X-1.020 Z-2.778     ; BKLS X-1.120 -> X-1.020
F60.00 X-0.963 Z-2.861     ; BKLS X-1.063 -> X-0.963
F60.00 X-0.907 Z-2.944     ; BKLS X-1.007 -> X-0.907
F60.00 X-0.889 Z-2.973     ; BKLS X-0.989 -> X-0.889
F60.00 X-0.887 Z-2.976     ; BKLS X-0.987 -> X-0.887
F60.00 X-0.873 Z-2.999     ; BKLS X-0.973 -> X-0.873
F60.00 X-0.829 Z-3.089     ; BKLS X-0.929 -> X-0.829
F60.00 X-0.785 Z-3.179     ; BKLS X-0.885 -> X-0.785
F60.00 X-0.741 Z-3.268     ; BKLS X-0.841 -> X-0.741
F60.00 X-0.697 Z-3.358     ; BKLS X-0.797 -> X-0.697
F60.00 X-0.681 Z-3.391     ; BKLS X-0.781 -> X-0.681
F60.00 X-0.671 Z-3.416     ; BKLS X-0.771 -> X-0.671
F60.00 X-0.670 Z-3.419     ; BKLS X-0.770 -> X-0.670
F60.00 X-0.639 Z-3.514     ; BKLS X-0.739 -> X-0.639
F60.00 X-0.606 Z-3.609     ; BKLS X-0.706 -> X-0.606
F60.00 X-0.576 Z-3.704     ; BKLS X-0.676 -> X-0.576
F60.00 X-0.545 Z-3.799     ; BKLS X-0.645 -> X-0.545
F60.00 X-0.534 Z-3.832     ; BKLS X-0.634 -> X-0.534
F60.00 X-0.533 Z-3.835     ; BKLS X-0.633 -> X-0.533
F60.00 X-0.526 Z-3.862     ; BKLS X-0.626 -> X-0.526
F60.00 X-0.508 Z-3.960     ; BKLS X-0.608 -> X-0.508
F60.00 X-0.490 Z-4.059     ; BKLS X-0.590 -> X-0.490
F60.00 X-0.472 Z-4.157     ; BKLS X-0.572 -> X-0.472
F60.00 X-0.454 Z-4.255     ; BKLS X-0.554 -> X-0.454
F60.00 X-0.447 Z-4.291     ; BKLS X-0.547 -> X-0.447
F60.00 X-0.445 Z-4.301     ; BKLS X-0.545 -> X-0.445
F60.00 X-0.443 Z-4.321     ; BKLS X-0.543 -> X-0.443
F60.00 X-0.438 Z-4.421     ; BKLS X-0.538 -> X-0.438
F60.00 X-0.434 Z-4.521     ; BKLS X-0.534 -> X-0.434
F60.00 X-0.428 Z-4.621     ; BKLS X-0.528 -> X-0.428
F60.00 X-0.425 Z-4.721     ; BKLS X-0.525 -> X-0.425
F60.00 X-0.423 Z-4.756     ; BKLS X-0.523 -> X-0.423
F60.00 X-0.423 Z-4.769     ; BKLS X-0.523 -> X-0.423
F60.00 X-0.424 Z-4.786     ; BKLS X-0.524 -> X-0.424
F60.00 X-0.533 Z-4.886
F60.00 X-0.540 Z-4.985
F60.00 X-0.549 Z-5.085
F60.00 X-0.558 Z-5.184
F60.00 X-0.561 Z-5.220
F60.00 X-0.562 Z-5.232
F60.00 X-0.566 Z-5.252
F60.00 X-0.590 Z-5.349
F60.00 X-0.611 Z-5.447
F60.00 X-0.635 Z-5.544
F60.00 X-0.656 Z-5.642
F60.00 X-0.664 Z-5.676
F60.00 X-0.669 Z-5.694
F60.00 X-0.670 Z-5.697
F60.00 X-0.673 Z-5.705
F60.00 X-0.709 Z-5.799
F60.00 X-0.744 Z-5.892
F60.00 X-0.779 Z-5.986
F60.00 X-0.814 Z-6.079
F60.00 X-0.824 Z-6.104
F60.00 X-0.825 Z-6.107
F60.00 X-0.832 Z-6.122
F60.00 X-0.840 Z-6.140
F60.00 X-0.888 Z-6.228
F60.00 X-0.936 Z-6.316
F60.00 X-0.984 Z-6.403
F60.00 X-1.030 Z-6.491
F60.00 X-1.049 Z-6.523
F60.00 X-1.060 Z-6.541
F60.00 X-1.065 Z-6.548
F60.00 X-1.124 Z-6.629
F60.00 X-1.183 Z-6.709
F60.00 X-1.243 Z-6.790
F60.00 X-1.302 Z-6.870
F60.00 X-1.318 Z-6.892
F60.00 X-1.320 Z-6.895
F60.00 X-1.330 Z-6.908
F60.00 X-1.343 Z-6.923
F60.00 X-1.412 Z-6.995
F60.00 X-1.482 Z-7.066
F60.00 X-1.552 Z-7.138
F60.00 X-1.621 Z-7.210
F60.00 X-1.646 Z-7.235
F60.00 X-1.663 Z-7.251
F60.00 X-1.669 Z-7.255
F60.00 X-1.746 Z-7.317
F60.00 X-1.825 Z-7.379
F60.00 X-1.904 Z-7.440
F60.00 X-1.982 Z-7.502
F60.00 X-2.010 Z-7.523
F60.00 X-2.015 Z-7.528
F60.00 X-2.031 Z-7.539
F60.00 X-2.106 Z-7.592
F60.00 X-2.179 Z-7.643
F60.00 X-2.191 Z-7.743
F60.00 X-2.083 Z-7.842     ; BKLS X-2.183 -> X-2.083
F60.00 X-2.075 Z-7.942     ; BKLS X-2.175 -> X-2.075
F60.00 X-2.067 Z-8.042     ; BKLS X-2.167 -> X-2.067
F60.00 X-2.059 Z-8.141     ; BKLS X-2.159 -> X-2.059
F60.00 X-2.051 Z-8.241     ; BKLS X-2.151 -> X-2.051
F60.00 X-2.043 Z-8.341     ; BKLS X-2.143 -> X-2.043
F60.00 X-2.035 Z-8.440     ; BKLS X-2.135 -> X-2.035
F60.00 X-2.029 Z-8.540     ; BKLS X-2.129 -> X-2.029
F60.00 X-2.021 Z-8.640     ; BKLS X-2.121 -> X-2.021
F60.00 X-2.013 Z-8.740     ; BKLS X-2.113 -> X-2.013
F60.00 X-2.005 Z-8.839     ; BKLS X-2.105 -> X-2.005
F60.00 X-1.996 Z-8.939     ; BKLS X-2.096 -> X-1.996
F60.00 X-1.988 Z-9.039     ; BKLS X-2.088 -> X-1.988
F60.00 X-1.980 Z-9.138     ; BKLS X-2.080 -> X-1.980
F60.00 X-1.972 Z-9.238     ; BKLS X-2.072 -> X-1.972
F60.00 X-1.964 Z-9.338     ; BKLS X-2.064 -> X-1.964
F60.00 X-1.956 Z-9.437     ; BKLS X-2.056 -> X-1.956
F60.00 X-1.948 Z-9.537     ; BKLS X-2.048 -> X-1.948
F60.00 X-1.940 Z-9.637     ; BKLS X-2.040 -> X-1.940
F60.00 X-1.932 Z-9.736     ; BKLS X-2.032 -> X-1.932
F60.00 X-1.924 Z-9.836     ; BKLS X-2.024 -> X-1.924
F60.00 X-1.917 Z-9.936     ; BKLS X-2.017 -> X-1.917
F60.00 X-1.910 Z-10.035     ; BKLS X-2.010 -> X-1.910
F60.00 X-1.902 Z-10.135     ; BKLS X-2.002 -> X-1.902
F60.00 X-1.893 Z-10.235     ; BKLS X-1.993 -> X-1.893
F60.00 X-1.885 Z-10.335     ; BKLS X-1.985 -> X-1.885
F60.00 X-1.877 Z-10.434     ; BKLS X-1.977 -> X-1.877
F60.00 X-1.869 Z-10.534     ; BKLS X-1.969 -> X-1.869
F60.00 X-1.861 Z-10.634     ; BKLS X-1.961 -> X-1.861
F60.00 X-1.853 Z-10.733     ; BKLS X-1.953 -> X-1.853
F60.00 X-1.845 Z-10.833     ; BKLS X-1.945 -> X-1.845
F60.00 X-1.837 Z-10.933     ; BKLS X-1.937 -> X-1.837
F60.00 X-1.829 Z-11.032     ; BKLS X-1.929 -> X-1.829
F60.00 X-1.822 Z-11.132     ; BKLS X-1.922 -> X-1.822
F60.00 X-1.814 Z-11.232     ; BKLS X-1.914 -> X-1.814
F60.00 X-1.806 Z-11.331     ; BKLS X-1.906 -> X-1.806
F60.00 X-1.799 Z-11.431     ; BKLS X-1.899 -> X-1.799
F60.00 X-1.790 Z-11.531     ; BKLS X-1.890 -> X-1.790
F60.00 X-1.782 Z-11.630     ; BKLS X-1.882 -> X-1.782
F60.00 X-1.774 Z-11.730     ; BKLS X-1.874 -> X-1.774
F60.00 X-1.766 Z-11.830     ; BKLS X-1.866 -> X-1.766
F60.00 X-1.758 Z-11.929     ; BKLS X-1.858 -> X-1.758
F60.00 X-1.754 Z-11.997     ; BKLS X-1.854 -> X-1.754


( Back to startpoint )
G90
G1 F160.00 X0.5
F160 Z0

